src/qt/res/icons/icons_light/lock_closed.svg

<svg enable-background="new -225 -112.5 500 250" height="250" viewBox="-225 -112.5 179.23662 250" width="179.23662" xmlns="http://www.w3.org/2000/svg"><path clip-rule="evenodd" d="m97.695061-12.794185h-6.522934c.219284-15.911883.464958-37.183986.210487-41.137314-1.944031-30.173786-27.962875-55.779831-59.236385-58.298141-1.960367-.15669-3.922619-.24575-5.83272-.26618-17.0507965-.17515-32.0997543 5.15257-44.727787 15.833895-12.530956 10.600433-20.762926 26.223205-22.019259 41.790535-.292484 3.620632-.262008 26.013269-.22211 42.077205h-7.039417c-9.346615 0-16.923245 7.5767874-16.923245 16.9231686v116.4478564c0 9.34638 7.57663 16.92316 16.923245 16.92316h145.390125c9.346459 0 16.923249-7.57678 16.923249-16.92316v-116.4478575c0-9.3463802-7.57679-16.9231675-16.923249-16.9231675zm-50.816006 120.712245h-42.0755105l6.4236745-52.152759c-6.194641-4.350632-10.2228569-11.390614-10.2228569-19.340584 0-13.213375 11.1197549-23.924271 24.8362679-23.924717 13.716961 0 24.836715 10.710783 24.836715 23.924271 0 7.949855-4.027771 14.989841-10.221515 19.34103zm-59.700004-120.712245c.18787-19.392791 1.163655-46.906025 5.6696715-54.24287 6.9891486-11.381287 18.4953095-18.067268 31.5678805-18.344437.465273-.01021.924261-.01217 1.381052-.0079 13.255098.136185 24.870901 6.693916 31.866648 17.990371 4.838085 7.811547 5.822353 34.271477 5.796905 54.604786h-76.282157z" fill="#8763e0" fill-rule="evenodd" transform="translate(-160.38169)"/></svg>

<?xml version="1.0" encoding="utf-8"?>
<!-- Generator: Adobe Illustrator 19.0.0, SVG Export Plug-In . SVG Version: 6.00 Build 0)  -->
<svg version="1.1" id="Layer_1" xmlns="http://www.w3.org/2000/svg" xmlns:xlink="http://www.w3.org/1999/xlink" x="0px" y="0px" viewBox="-225 -112.5 500 250"
	 enable-background="new -225 -112.5 500 250" xml:space="preserve">
	<g>
		<path id="XMLID_124_" fill-rule="evenodd" clip-rule="evenodd" fill="#8763E0" d="M97.6950607-12.7941847h-6.522934
			c0.2192841-15.9118834,0.4649582-37.1839867,0.2104874-41.1373138
			c-1.9440308-30.1737862-27.9628754-55.7798271-59.2363853-58.2981453
			c-1.9603672-0.1566849-3.9226189-0.2457504-5.8327198-0.2661743c-17.0507965-0.175148-32.0997543,5.152565-44.727787,15.8338928
			c-12.5309563,10.6004333-20.7629261,26.2232056-22.0192585,41.790535
			c-0.2924843,3.6206322-0.2620087,26.0132694-0.2221107,42.0772057h-7.0394173
			c-9.3466148,0-16.9232445,7.576787-16.9232445,16.9231682v116.4478531c0,9.3463821,7.5766296,16.9231644,16.9232445,16.9231644
			H97.6950607c9.3464584,0,16.9232483-7.5767822,16.9232483-16.9231644V4.1289825
			C114.618309-5.2173977,107.0415192-12.7941847,97.6950607-12.7941847z M46.879055,107.9180603H4.8035445l6.4236741-52.1527596
			C5.032578,51.414669,1.0043621,44.3746872,1.0043621,36.4247169c0-13.2133751,11.1197548-23.9242706,24.8362675-23.9247169
			c13.7169609,0,24.8367157,10.710783,24.8367157,23.9242706c0,7.9498558-4.027771,14.9898415-10.2215157,19.3410301
			L46.879055,107.9180603z M-12.8209486-12.7941847c0.1878691-19.3927917,1.1636543-46.9060249,5.6696711-54.2428703
			c6.9891486-11.3812866,18.4953098-18.0672684,31.5678806-18.3444366c0.4652729-0.0102081,0.9242611-0.0121689,1.381052-0.0078506
			c13.2550983,0.1361847,24.8709011,6.6939163,31.8666477,17.9903717
			c4.8380852,7.8115463,5.8223534,34.2714767,5.7969055,54.6047859H-12.8209486z"/>
	</g>
</svg>
